**harm	**harte	**timestamp	**phrase	**leadinstrument	**kern
*M4/4	*M4/4	*	*	*	*
*c:	*c:	*	*	*	*c:
1r;	N	0	.	r	1r;
=1	=1	=1	=1	=1	=1
*>A_intro	*>A_intro	*>A_intro	*>A_intro	*>A_intro	*>A_intro
1i	C:5	0.395	newline	synthesizer	1C 1e- 1g
=2	=2	=2	=2	=2	=2
1i	C:sus4(b7)	2.541	.	synthesizer	1C 1e- 1g
=3	=3	=3	=3	=3	=3
1-VIb	A-:maj/3	4.686	.	synthesizer	1a-- 1C- 1ee--
=4	=4	=4	=4	=4	=4
2iv	F:min	6.832	.	synthesizer	2F 2a- 2cc
2v7d	G:min7/b7	7.905	.	synthesizer	2g 2b- 2dd 2F
=5	=5	=5	=5	=5	=5
*>B2_preverse	*>B2_preverse	*>B2_preverse	*>B2_preverse	*>B2_preverse	*>B2_preverse
1i	C:min	8.978	newline	synthesizer	1C 1e- 1g
=6	=6	=6	=6	=6	=6
1i	C:min	11.134	.	synthesizer	1C 1e- 1g
=7	=7	=7	=7	=7	=7
1i	C:min	13.29	.	synthesizer	1C 1e- 1g
=8	=8	=8	=8	=8	=8
1i	C:min	15.446	.	synthesizer	1C 1e- 1g
=9	=9	=9	=9	=9	=9
1-VI	A-:maj	17.602	newline	synthesizer	1A-- 1cc- 1ee--
=10	=10	=10	=10	=10	=10
1-IIIb	E-:maj/3	19.726	.	synthesizer	1e-- 1G- 1b--
=11	=11	=11	=11	=11	=11
1IV	F:maj	21.851	.	synthesizer	1F 1a 1cc
=12	=12	=12	=12	=12	=12
1IV	F:maj	23.975	.	synthesizer	1F 1a 1cc
=13	=13	=13	=13	=13	=13
*>B_verse	*>B_verse	*>B_verse	*>B_verse	*>B_verse	*>B_verse
1i	C:min	26.1	newline	voice	1C 1e- 1g
=14	=14	=14	=14	=14	=14
1i	C:min	28.242	.	voice	1C 1e- 1g
=15	=15	=15	=15	=15	=15
1i	C:min	30.385	.	voice	1C 1e- 1g
=16	=16	=16	=16	=16	=16
1i	C:min	32.528	.	voice	1C 1e- 1g
=17	=17	=17	=17	=17	=17
1-VI	A-:maj	34.671	newline	voice	1A-- 1cc- 1ee--
=18	=18	=18	=18	=18	=18
1-IIIb	E-:maj/3	36.811	.	voice	1e-- 1G- 1b--
=19	=19	=19	=19	=19	=19
1IV	F:maj	38.951	.	voice	1F 1a 1cc
=20	=20	=20	=20	=20	=20
1IV	F:maj	41.09	.	voice	1F 1a 1cc
=21	=21	=21	=21	=21	=21
*>B_verse	*>B_verse	*>B_verse	*>B_verse	*>B_verse	*>B_verse
1i	C:min	43.23	newline	voice	1C 1e- 1g
=22	=22	=22	=22	=22	=22
1i	C:min	45.378	.	voice	1C 1e- 1g
=23	=23	=23	=23	=23	=23
1i	C:min	47.525	.	voice	1C 1e- 1g
=24	=24	=24	=24	=24	=24
1i	C:min	49.673	.	voice	1C 1e- 1g
=25	=25	=25	=25	=25	=25
1-VI	A-:maj	51.82	newline	voice	1A-- 1cc- 1ee--
=26	=26	=26	=26	=26	=26
1-IIIb	E-:maj/3	53.943	.	voice	1e-- 1G- 1b--
=27	=27	=27	=27	=27	=27
1IV	F:maj	56.066	.	voice	1F 1a 1cc
=28	=28	=28	=28	=28	=28
1IV	F:maj	58.19	.	voice	1F 1a 1cc
=29	=29	=29	=29	=29	=29
*>C_prechorus	*>C_prechorus	*>C_prechorus	*>C_prechorus	*>C_prechorus	*>C_prechorus
1-VI	A-:maj	60.313	newline	voice	1A-- 1cc- 1ee--
=30	=30	=30	=30	=30	=30
1v	G:min	62.458	.	voice	1G 1b- 1dd
=31	=31	=31	=31	=31	=31
1IV	F:maj	64.603	.	voice	1F 1a 1cc
=32	=32	=32	=32	=32	=32
1-III	E-:maj	66.748	.	voice	1E-- 1g- 1b--
=33	=33	=33	=33	=33	=33
1-VI	A-:maj	68.893	newline	voice	1A-- 1cc- 1ee--
=34	=34	=34	=34	=34	=34
1-IIIb	E-:maj/3	71.034	.	voice	1e-- 1G- 1b--
=35	=35	=35	=35	=35	=35
1IV	F:maj	73.174	.	voice	1F 1a 1cc
=36	=36	=36	=36	=36	=36
2-VIe	A-:maj/2	75.315	.	voice	2A-- 2cc- 2ee--
2-VII	B-:maj	76.386	.	voice	2B- 2dd 2ff
=37	=37	=37	=37	=37	=37
*>D_chorus	*>D_chorus	*>D_chorus	*>D_chorus	*>D_chorus	*>D_chorus
1I	C:maj	77.456	newline	voice	1C 1e 1g
=38	=38	=38	=38	=38	=38
1v7	G:min7	79.598	.	voice	1G 1b- 1dd 1ff
=39	=39	=39	=39	=39	=39
1iv7	F:min7	81.739	.	voice	1F 1a- 1cc 1ee-
=40	=40	=40	=40	=40	=40
2-VIe	A-:maj/2	83.88	.	voice	2A-- 2cc- 2ee--
2-VII	B-:maj	84.951	.	voice	2B- 2dd 2ff
=41	=41	=41	=41	=41	=41
1I	C:maj	86.022	newline	voice	1C 1e 1g
=42	=42	=42	=42	=42	=42
1v7	G:min7	88.158	.	voice	1G 1b- 1dd 1ff
=43	=43	=43	=43	=43	=43
1iv7	F:min7	90.294	.	voice	1F 1a- 1cc 1ee-
=44	=44	=44	=44	=44	=44
2-VIe	A-:maj/2	92.43	.	voice	2A-- 2cc- 2ee--
2-VII	B-:maj	93.499	.	voice	2B- 2dd 2ff
=45	=45	=45	=45	=45	=45
*>B2_preverse	*>B2_preverse	*>B2_preverse	*>B2_preverse	*>B2_preverse	*>B2_preverse
1i	C:min	94.567	newline	synthesizer	1C 1e- 1g
=46	=46	=46	=46	=46	=46
1i	C:min	96.709	.	synthesizer	1C 1e- 1g
=47	=47	=47	=47	=47	=47
1i	C:min	98.851	.	synthesizer	1C 1e- 1g
=48	=48	=48	=48	=48	=48
1i	C:min	100.993	.	synthesizer	1C 1e- 1g
=49	=49	=49	=49	=49	=49
1-VI	A-:maj	103.136	newline	synthesizer	1A-- 1cc- 1ee--
=50	=50	=50	=50	=50	=50
1-IIIb	E-:maj/3	105.282	.	synthesizer	1e-- 1G- 1b--
=51	=51	=51	=51	=51	=51
1IV	F:maj	107.428	.	synthesizer	1F 1a 1cc
=52	=52	=52	=52	=52	=52
1IV	F:maj	109.574	.	synthesizer	1F 1a 1cc
=53	=53	=53	=53	=53	=53
*>B_verse	*>B_verse	*>B_verse	*>B_verse	*>B_verse	*>B_verse
1i	C:min	111.72	newline	voice	1C 1e- 1g
=54	=54	=54	=54	=54	=54
1i	C:min	113.856	.	voice	1C 1e- 1g
=55	=55	=55	=55	=55	=55
1i	C:min	115.992	.	voice	1C 1e- 1g
=56	=56	=56	=56	=56	=56
1i	C:min	118.128	.	voice	1C 1e- 1g
=57	=57	=57	=57	=57	=57
1-VI	A-:maj	120.264	newline	voice	1A-- 1cc- 1ee--
=58	=58	=58	=58	=58	=58
1-IIIb	E-:maj/3	122.394	.	voice	1e-- 1G- 1b--
=59	=59	=59	=59	=59	=59
1IV	F:maj	124.524	.	voice	1F 1a 1cc
=60	=60	=60	=60	=60	=60
1IV	F:maj	126.654	.	voice	1F 1a 1cc
=61	=61	=61	=61	=61	=61
*>C_prechorus	*>C_prechorus	*>C_prechorus	*>C_prechorus	*>C_prechorus	*>C_prechorus
1-VI	A-:maj	128.784	newline	voice	1A-- 1cc- 1ee--
=62	=62	=62	=62	=62	=62
1v	G:min	130.929	.	voice	1G 1b- 1dd
=63	=63	=63	=63	=63	=63
1IV	F:maj	133.074	.	voice	1F 1a 1cc
=64	=64	=64	=64	=64	=64
1-III	E-:maj	135.219	.	voice	1E-- 1g- 1b--
=65	=65	=65	=65	=65	=65
1-VI	A-:maj	137.364	newline	voice	1A-- 1cc- 1ee--
=66	=66	=66	=66	=66	=66
1-IIIb	E-:maj/3	139.509	.	voice	1e-- 1G- 1b--
=67	=67	=67	=67	=67	=67
1IV	F:maj	141.654	.	voice	1F 1a 1cc
=68	=68	=68	=68	=68	=68
2-VIe	A-:maj/2	143.799	.	voice	2A-- 2cc- 2ee--
2-VII	B-:maj	144.871	.	voice	2B- 2dd 2ff
=69	=69	=69	=69	=69	=69
*>D_chorus	*>D_chorus	*>D_chorus	*>D_chorus	*>D_chorus	*>D_chorus
1I	C:maj	145.944	newline	voice	1C 1e 1g
=70	=70	=70	=70	=70	=70
1v7	G:min7	148.089	.	voice	1G 1b- 1dd 1ff
=71	=71	=71	=71	=71	=71
1iv7	F:min7	150.234	.	voice	1F 1a- 1cc 1ee-
=72	=72	=72	=72	=72	=72
2-VIe	A-:maj/2	152.379	.	voice	2A-- 2cc- 2ee--
2-VII	B-:maj	153.451	.	voice	2B- 2dd 2ff
=73	=73	=73	=73	=73	=73
1I	C:maj	154.524	newline	voice	1C 1e 1g
=74	=74	=74	=74	=74	=74
1v7	G:min7	156.647	.	voice	1G 1b- 1dd 1ff
=75	=75	=75	=75	=75	=75
1iv7	F:min7	158.77	.	voice	1F 1a- 1cc 1ee-
=76	=76	=76	=76	=76	=76
2-VIe	A-:maj/2	160.893	.	voice	2A-- 2cc- 2ee--
2-VII	B-:maj	161.955	.	voice	2B- 2dd 2ff
=77	=77	=77	=77	=77	=77
*>D_chorus	*>D_chorus	*>D_chorus	*>D_chorus	*>D_chorus	*>D_chorus
1I	C:maj	163.016	newline	voice	1C 1e 1g
=78	=78	=78	=78	=78	=78
1v7	G:min7	165.161	.	voice	1G 1b- 1dd 1ff
=79	=79	=79	=79	=79	=79
1iv7	F:min7	167.306	.	voice	1F 1a- 1cc 1ee-
=80	=80	=80	=80	=80	=80
2-VIe	A-:maj/2	169.451	.	voice	2A-- 2cc- 2ee--
2-VII	B-:maj	170.524	.	voice	2B- 2dd 2ff
=81	=81	=81	=81	=81	=81
1I	C:maj	171.596	newline	voice	1C 1e 1g
=82	=82	=82	=82	=82	=82
1v7	G:min7	173.741	.	voice	1G 1b- 1dd 1ff
=83	=83	=83	=83	=83	=83
1iv7	F:min7	175.886	.	voice	1F 1a- 1cc 1ee-
=84	=84	=84	=84	=84	=84
2-VIe	A-:maj/2	178.031	.	voice	2A-- 2cc- 2ee--
2-VII	B-:maj	179.104	.	voice	2B- 2dd 2ff
=85	=85	=85	=85	=85	=85
*>B2_preverse	*>B2_preverse	*>B2_preverse	*>B2_preverse	*>B2_preverse	*>B2_preverse
1i	C:min	180.177	newline	synthesizer	1C 1e- 1g
=86	=86	=86	=86	=86	=86
1i	C:min	182.327	.	synthesizer	1C 1e- 1g
=87	=87	=87	=87	=87	=87
1i	C:min	184.477	.	synthesizer	1C 1e- 1g
=88	=88	=88	=88	=88	=88
1i	C:min	186.627	.	synthesizer	1C 1e- 1g
=89	=89	=89	=89	=89	=89
1-VI	A-:maj	188.777	newline	synthesizer	1A-- 1cc- 1ee--
=90	=90	=90	=90	=90	=90
1-IIIb	E-:maj/3	190.904	.	synthesizer	1e-- 1G- 1b--
=91	=91	=91	=91	=91	=91
1IV	F:maj	193.031	.	synthesizer	1F 1a 1cc
=92	=92	=92	=92	=92	=92
1IV	F:maj	195.159	.	synthesizer	1F 1a 1cc
=93	=93	=93	=93	=93	=93
*>E_outro	*>E_outro	*>E_outro	*>E_outro	*>E_outro	*>E_outro
1i	C:min	197.286	newline	voice	1C 1e- 1g
=94	=94	=94	=94	=94	=94
1v7	G:min7	199.425	.	voice	1G 1b- 1dd 1ff
=95	=95	=95	=95	=95	=95
1iv7	F:min7	201.565	.	voice	1F 1a- 1cc 1ee-
=96	=96	=96	=96	=96	=96
2-VIe	A-:maj/2	203.705	.	voice	2A-- 2cc- 2ee--
2-VII	B-:maj	204.775	.	voice	2B- 2dd 2ff
=97	=97	=97	=97	=97	=97
1i	C:min	205.844	newline	voice	1C 1e- 1g
=98	=98	=98	=98	=98	=98
1v7	G:min7	207.985	.	voice	1G 1b- 1dd 1ff
=99	=99	=99	=99	=99	=99
1iv7	F:min7	210.126	.	voice	1F 1a- 1cc 1ee-
=100	=100	=100	=100	=100	=100
2-VIe	A-:maj/2	212.267	.	voice	2A-- 2cc- 2ee--
2-VII	B-:maj	213.338	.	voice	2B- 2dd 2ff
=101	=101	=101	=101	=101	=101
1i	C:min	214.408	newline	voice	1C 1e- 1g
=102	=102	=102	=102	=102	=102
1v7	G:min7	216.552	.	voice	1G 1b- 1dd 1ff
=103	=103	=103	=103	=103	=103
1iv7	F:min7	218.696	.	voice	1F 1a- 1cc 1ee-
=104	=104	=104	=104	=104	=104
2-VIe	A-:maj/2	220.84	.	voice	2A-- 2cc- 2ee--
2-VII	B-:maj	221.912	.	voice	2B- 2dd 2ff
=105	=105	=105	=105	=105	=105
1i	C:min	222.983	newline	voice	1C 1e- 1g
=106	=106	=106	=106	=106	=106
1v7	G:min7	225.121	.	voice	1G 1b- 1dd 1ff
=107	=107	=107	=107	=107	=107
1iv7	F:min7	227.259	.	voice	1F 1a- 1cc 1ee-
=108	=108	=108	=108	=108	=108
2-VIe	A-:maj/2	229.396	.	voice	2A-- 2cc- 2ee--
2-VII	B-:maj	230.465	.	voice	2B- 2dd 2ff
=109	=109	=109	=109	=109	=109
*>_fadeout	*>_fadeout	*>_fadeout	*>_fadeout	*>_fadeout	*>_fadeout
1i	C:min	231.534	newline	voice	1C 1e- 1g
=110	=110	=110	=110	=110	=110
1v7	G:min7	233.669	.	voice	1G 1b- 1dd 1ff
=111	=111	=111	=111	=111	=111
1iv7	F:min7	235.805	.	voice	1F 1a- 1cc 1ee-
=112	=112	=112	=112	=112	=112
2-VIe	A-:maj/2	237.94	.	voice	2A-- 2cc- 2ee--
2-VII	B-:maj	239.008	.	voice	2B- 2dd 2ff
=113	=113	=113	=113	=113	=113
1i	C:min	240.075	newline	voice	1C 1e- 1g
=114	=114	=114	=114	=114	=114
1v7	G:min7	241.502	.	voice	1G 1b- 1dd 1ff
=115	=115	=115	=115	=115	=115
1iv7	F:min7	242.929	.	voice	1F 1a- 1cc 1ee-
=116	=116	=116	=116	=116	=116
2-VIe	A-:maj/2	244.356	.	voice	2A-- 2cc- 2ee--
2-VII	B-:maj	245.07	.	voice	2B- 2dd 2ff
1r;	N	245.783	.	r	1r;
1r;	N	248.816	.	r	1r;
*-	*-	*-	*-	*-	*-
!!!OTL: A Trick Of The Night
!!!COC: Bananarama
!!!BillboardChartDate: 1987/01/31
!!!BillboardPeak: 76
!!!BillboardWeeksOnChart: 7
!!!SampleTargetRank: 88
!!!SampleActualRank: 86
!!!SampleID#: 0099
!!!RDF**harmony: **recip + pitch class of root + harmonic quality
!!!RDF**harte: Chris Harte's syntax, used by MIREX
!!!RDF**phrase: newline = linebreak in original McGill transcription
!!!RDF**timestamp: McGill audio timestamp in seconds
!!!RDF**leadinstrument: original McGill primary instrumentation annotation
!!!RDT: 2017/01/12/
!!!ENC: Nathaniel Condit-Schultz
!!!EST: Awating manual error checking and editing.
